lib/brands/icons/we-transfer.svg

<svg xmlns="http://www.w3.org/2000/svg" fill="none" aria-hidden="true" viewBox="0 0 48 48"><g id="we-transfer-Icon"><g id="Group"><path id="Vector" fill="#0095DA" d="M42.4575 28.4493C42.1464 28.4 41.8281 28.469 41.5654 28.6428C40.4003 29.4553 39.0114 29.8853 37.591 29.8734C34.7544 29.8734 32.2505 27.9385 31.879 24.6123C31.879 24.6123 38.1541 27.1742 42.6722 24.2756C43.7055 23.6138 44.1061 22.7895 43.9764 21.7427C43.4985 17.8863 41.0159 15.2935 36.9002 15.2935C32.1731 15.2935 28.5915 18.7435 28.5915 24.0202C28.5915 28.9388 32.1731 32.7082 37.3937 32.7082C39.4005 32.7012 41.3577 32.0837 43.0051 30.9377C43.1581 30.8249 43.2873 30.6829 43.3849 30.5198C43.4826 30.3567 43.5468 30.1758 43.5739 29.9876C43.6047 29.8126 43.5999 29.6332 43.5596 29.4602C43.5194 29.2871 43.4447 29.124 43.3399 28.9805C43.2351 28.837 43.1024 28.7162 42.9498 28.6252C42.7971 28.5343 42.6277 28.4751 42.4517 28.4512L42.4575 28.4493ZM8.54911 30.7113L4.18189 18.3701C4.07343 18.0698 4.01208 17.7545 4 17.4355V17.42C4.00265 17.1869 4.05205 16.9568 4.14528 16.7432C4.23851 16.5296 4.37366 16.3369 4.54274 16.1765C4.71181 16.016 4.91136 15.8912 5.12957 15.8093C5.34778 15.7274 5.5802 15.6902 5.81307 15.6998H26.1418C26.3703 15.696 26.5973 15.7376 26.8096 15.8222C27.0219 15.9069 27.2152 16.033 27.3783 16.193C27.5415 16.3531 27.6711 16.544 27.7598 16.7546C27.8485 16.9653 27.8944 17.1914 27.8949 17.42C27.8803 17.7026 27.8296 17.9823 27.744 18.252L23.3148 30.7113C22.9124 31.8452 22.1422 32.3676 21.2541 32.3676H21.1283C20.2092 32.3676 19.4391 31.8452 19.0985 30.7771L17.1404 24.8116C17.0587 24.5584 16.8969 24.3387 16.6795 24.1855C16.4621 24.0323 16.2007 23.9539 15.9349 23.9621C15.6667 23.954 15.403 24.0322 15.1825 24.1851C14.9621 24.338 14.7965 24.5576 14.71 24.8116L12.7364 30.7771C12.3939 31.8452 11.6276 32.3676 10.7337 32.3676H10.6098C9.6888 32.3676 8.91869 31.8452 8.54911 30.7113V30.7113Z"/><path id="Vector_2" fill="#00A5DF" d="M5.69116 22.6349C12.5119 22.1009 19.4817 21.861 26.434 21.9384L27.7459 18.2503C27.831 17.9812 27.8811 17.7022 27.8949 17.4202C27.8944 17.1917 27.8485 16.9655 27.7598 16.7549C27.6711 16.5442 27.5415 16.3533 27.3783 16.1933C27.2152 16.0332 27.0219 15.9072 26.8096 15.8225C26.5973 15.7378 26.3703 15.6962 26.1418 15.7H5.81307C5.5802 15.6904 5.34778 15.7277 5.12957 15.8095C4.91136 15.8914 4.71181 16.0163 4.54274 16.1767C4.37366 16.3371 4.23851 16.5298 4.14528 16.7434C4.05205 16.957 4.00265 17.1872 4 17.4202V17.4357C4.01208 17.7547 4.07343 18.07 4.18189 18.3703L5.69116 22.6272V22.6349ZM28.7908 21.9771C29.5919 17.8711 32.8155 15.2917 36.9022 15.2917C40.9888 15.2917 43.4985 17.8846 43.9764 21.741C43.99 21.8585 43.9971 21.9768 43.9977 22.0951C43.9995 22.3221 43.9689 22.5482 43.9068 22.7665C38.932 22.3408 33.872 22.0777 28.7908 21.9771Z"/></g></g></svg>

<svg xmlns="http://www.w3.org/2000/svg" fill="none" aria-hidden="true" viewBox="0 0 48 48"><path fill="#0095DA" d="M42.458 28.45a1.26 1.26 0 0 0-.893.193 6.848 6.848 0 0 1-3.974 1.23c-2.837 0-5.34-1.934-5.712-5.26 0 0 6.275 2.561 10.793-.337 1.034-.662 1.434-1.486 1.304-2.533-.477-3.857-2.96-6.45-7.076-6.45-4.727 0-8.308 3.45-8.308 8.727 0 4.919 3.581 8.688 8.802 8.688a9.887 9.887 0 0 0 5.611-1.77 1.435 1.435 0 0 0 .569-.95 1.318 1.318 0 0 0-1.122-1.537l.006-.002ZM8.549 30.71 4.182 18.37A3.084 3.084 0 0 1 4 17.435v-.016a1.741 1.741 0 0 1 1.813-1.72h20.329a1.726 1.726 0 0 1 1.753 1.72 3.316 3.316 0 0 1-.151.832l-4.43 12.46c-.402 1.133-1.172 1.656-2.06 1.656h-.126c-.919 0-1.689-.523-2.03-1.59l-1.958-5.966a1.227 1.227 0 0 0-1.205-.85 1.254 1.254 0 0 0-1.225.85l-1.974 5.965c-.342 1.068-1.108 1.59-2.002 1.59h-.124c-.921 0-1.691-.522-2.06-1.656Z"/><path fill="#00A5DF" d="M5.691 22.635c6.82-.534 13.79-.774 20.743-.697l1.312-3.688c.085-.269.135-.548.149-.83a1.724 1.724 0 0 0-1.753-1.72H5.813A1.743 1.743 0 0 0 4 17.42v.016c.012.319.073.634.182.934l1.51 4.257v.008Zm23.1-.658c.8-4.106 4.024-6.685 8.111-6.685 4.087 0 6.596 2.593 7.074 6.449.014.117.021.236.022.354.002.227-.03.453-.091.672a231.344 231.344 0 0 0-15.116-.79Z"/></svg>
